X: 29799
T: O'Carolan's Fancy
R: jig
M: 6/8
K: Dmajor
|:A/G/|FDF ABc|dAd fed|BdB AdF|EFD E2 A/G/|
FDF AF/G/A|BB/c/d ecA|GAB AFd|D>ED D2:|
|:c|dec dd/e/f|g2 g fed|e/f/ge aa/g/e|ded c2 A|
GB/c/d FAd|E2 e/d/ cBA|Ggf eAc|d>ed d2:|

